X: 34842
T: Roaring Barmaid, The
R: jig
M: 6/8
K: Gmajor
|:G3 EGD|G3 EGD|G3 BGG|dGG B3|
G3 EGD|G3 EGD|GAB deg|deg edB:|
|:DEG B3|BAB DEG|B3 BAG|AGE DEG|
B3 ABG|AGG BGG|AGG EGG|DEG EDB:|

